; Generated by Kiri:Moto 4.2.3
; Tue Aug 05 2025 11:41:29 GMT+0300 (التوقيت العربي الرسمي)
; Bed left:0 right:300 top:175 bottom:0
; Bed type: fixed
; Target: Any.Generic.Marlin
; --- process ---
; processName = default
; sliceAngle = 45
; sliceHeight = 0.25
; sliceShells = 3
; sliceShellOrder = in-out
; sliceLayerStart = last
; sliceLayerStartX = 0
; sliceLayerStartY = 0
; sliceLineWidth = 0
; sliceFillGrow = 0
; sliceFillAngle = 45
; sliceFillWidth = 1
; sliceFillOverlap = 0.35
; sliceFillSparse = 0.25
; sliceFillRepeat = 1
; sliceFillRate = 0
; sliceSolidRate = 0
; sliceFillType = hex
; sliceSupportDensity = 0.1
; sliceSupportOffset = 1
; sliceSupportGap = 1
; sliceSupportSize = 5
; sliceSupportArea = 0.1
; sliceSupportSpan = 5
; sliceSupportGrow = 0
; sliceSupportExtra = 0
; sliceSupportAngle = 50
; sliceSupportNozzle = 0
; sliceSupportEnable = false
; sliceSupportOutline = true
; sliceZInterleave = false
; sliceSolidMinArea = 1
; sliceBottomLayers = 3
; sliceTopLayers = 3
; firstSliceHeight = 0.25
; firstLayerRate = 30
; firstLayerFillRate = 35
; firstLayerPrintMult = 1
; firstLayerLineMult = 1
; firstLayerYOffset = 0
; firstLayerNozzleTemp = 0
; firstLayerBedTemp = 0
; firstLayerBrim = 0
; firstLayerBrimIn = 0
; firstLayerBrimTrig = 0
; firstLayerBrimGap = 0
; firstLayerBeltLead = 3
; firstLayerBeltBump = 0
; firstLayerFanSpeed = 0
; firstLayerFlatten = 0
; outputRaft = false
; outputRaftSpacing = 0.2
; outputDraftShield = false
; outputTemp = 200
; outputBedTemp = 60
; outputFeedrate = 50
; outputFinishrate = 50
; outputSeekrate = 80
; outputShellMult = 1.25
; outputFillMult = 1.25
; outputSparseMult = 1.25
; outputFanLayer = 1
; outputFanSpeed = 255
; outputRetractDist = 1.5
; outputRetractSpeed = 40
; outputRetractWipe = 0
; outputRetractDwell = 20
; outputBrimCount = 2
; outputBrimOffset = 2
; outputShortPoly = 100
; outputMinSpeed = 10
; outputCoastDist = 0
; outputPurgeTower = 0
; outputBeltFirst = false
; outputAvoidGaps = true
; outputAlternating = false
; outputLayerRetract = false
; outputLoops = 0
; outputInvertX = false
; outputInvertY = false
; sliceDetectThin = off
; sliceMinHeight = 0
; sliceAdaptive = false
; zHopDistance = 0.2
; arcTolerance = 0
; antiBacklash = 0
; ranges = []
; --- startup ---
M104 S200 T0             ; set extruder temperature
M140 S60 T0              ; set bed temperature
G90                      ; set absolute positioning mode
M83                      ; set relative positioning for extruder
M107                     ; turn off filament cooling fan
G28                      ; home axes
G92 X0 Y0 Z0 E0          ; reset all axes positions
G1 X0 Y0 Z0.25 F180      ; move xy to 0,0 and z 0.25mm over bed
G92 E0                   ; zero the extruded
M190 S60 T0              ; wait for bed to reach target temp
M109 S200 T0             ; wait for extruder to reach target temp
G1 E15 F200              ; purge 15mm from extruder
G92 E0                   ; zero the extruded
G1 F225                  ; set feed speed
G1 E-1.5000 F2400 ; e-retract 1.5
;; --- layer 0 (0.250 @ 0.255) ---
G1 Z0.2550 F4800
; feature brim
G1 X148.2759 Y111.4380
G1 E1.5000 F2400 ; e-engage 1.5
G4 P20
G1 X151.7252 E0.1408 F1800
G1 X155.1399 Y110.9571 E0.1408
G1 X158.4544 Y110.0063 E0.1407
G1 X161.6060 Y108.6029 E0.1408
G1 X164.5300 Y106.7736 E0.1408
G1 X167.1713 Y104.5561 E0.1408
G1 X169.4791 Y101.9925 E0.1408
G1 X171.4083 Y99.1310 E0.1409
G1 X172.9190 Y96.0295 E0.1408
G1 X173.9849 Y92.7482 E0.1408
G1 X174.5833 Y89.3504 E0.1408
G1 X174.7040 Y85.9023 E0.1408
G1 X174.3439 Y82.4703 E0.1409
G1 X173.5095 Y79.1227 E0.1408
G1 X172.2174 Y75.9238 E0.1408
G1 X170.4938 Y72.9354 E0.1408
G1 X168.3704 Y70.2159 E0.1408
G1 X165.8901 Y67.8190 E0.1408
G1 X163.1001 Y65.7910 E0.1408
G1 X160.0546 Y64.1705 E0.1408
G1 X156.8141 Y62.9901 E0.1408
G1 X153.4398 Y62.2731 E0.1408
G1 X150.0000 Y62.0326 E0.1407
G1 X146.5602 Y62.2731 E0.1407
G1 X143.1859 Y62.9901 E0.1408
G1 X139.9453 Y64.1706 E0.1408
G1 X136.9007 Y65.7911 E0.1408
G1 X134.1111 Y67.8188 E0.1408
G1 X131.6298 Y70.2157 E0.1408
G1 X129.5062 Y72.9354 E0.1408
G1 X127.7826 Y75.9238 E0.1408
G1 X126.4905 Y79.1227 E0.1408
G1 X125.6561 Y82.4703 E0.1408
G1 X125.2960 Y85.9023 E0.1409
G1 X125.4167 Y89.3504 E0.1408
G1 X126.0151 Y92.7482 E0.1408
G1 X127.0811 Y96.0298 E0.1408
G1 X128.5927 Y99.1310 E0.1408
G1 X130.5207 Y101.9923 E0.1408
G1 X132.8287 Y104.5561 E0.1408
G1 X135.4701 Y106.7738 E0.1408
G1 X138.3951 Y108.6029 E0.1408
G1 X141.5454 Y110.0063 E0.1408
G1 X144.8601 Y110.9571 E0.1407
G1 X148.2759 Y111.4380 E0.1408
G1 X148.2479 Y111.8380 F4800
G1 X151.7532 E0.1431 F1800
G1 X155.2234 Y111.3493 E0.1430
G1 X158.5916 Y110.3831 E0.1430
G1 X161.7943 Y108.9569 E0.1431
G1 X164.7658 Y107.0979 E0.1431
G1 X167.4499 Y104.8445 E0.1430
G1 X169.7951 Y102.2393 E0.1431
G1 X171.7557 Y99.3314 E0.1431
G1 X173.2908 Y96.1796 E0.1431
G1 X174.3740 Y92.8452 E0.1431
G1 X174.9821 Y89.3923 E0.1431
G1 X175.1048 Y85.8884 E0.1431
G1 X174.7388 Y82.4007 E0.1431
G1 X173.8909 Y78.9988 E0.1431
G1 X172.5779 Y75.7481 E0.1431
G1 X170.8263 Y72.7113 E0.1431
G1 X168.6685 Y69.9476 E0.1431
G1 X166.1479 Y67.5119 E0.1431
G1 X163.3127 Y65.4510 E0.1431
G1 X160.2178 Y63.8043 E0.1431
G1 X156.9247 Y62.6047 E0.1431
G1 X153.4956 Y61.8760 E0.1431
G1 X150.0000 Y61.6317 E0.1430
G1 X146.5044 Y61.8760 E0.1430
G1 X143.0753 Y62.6047 E0.1431
G1 X139.7820 Y63.8044 E0.1431
G1 X136.6881 Y65.4512 E0.1431
G1 X133.8533 Y67.5117 E0.1430
G1 X131.3317 Y69.9474 E0.1431
G1 X129.1737 Y72.7113 E0.1431
G1 X127.4222 Y75.7481 E0.1431
G1 X126.1091 Y78.9988 E0.1431
G1 X125.2612 Y82.4007 E0.1431
G1 X124.8952 Y85.8884 E0.1431
G1 X125.0179 Y89.3923 E0.1431
G1 X125.6260 Y92.8452 E0.1431
G1 X126.7093 Y96.1800 E0.1431
G1 X128.2454 Y99.3314 E0.1431
G1 X130.2047 Y102.2391 E0.1431
G1 X132.5501 Y104.8445 E0.1431
G1 X135.2344 Y107.0981 E0.1431
G1 X138.2067 Y108.9569 E0.1431
G1 X141.4082 Y110.3831 E0.1431
G1 X144.7767 Y111.3493 E0.1430
G1 X148.2479 Y111.8380 E0.1431
G1 E-1.5000 F2400 ; e-retract 1.5
G1 Z0.4550 F4800 ; z-hop start
; start object id: 101
; feature shells
G1 X148.5000 Y108.2380
G1 Z0.2550 ; z-hop end
G1 E1.5000 F2400 ; e-engage 1.5
G4 P20
G1 X151.5009 E0.1225 F1800
G1 X154.4724 Y107.8195 E0.1225
G1 X157.3570 Y106.9921 E0.1225
G1 X160.0991 Y105.7710 E0.1225
G1 X162.6435 Y104.1792 E0.1225
G1 X164.9425 Y102.2490 E0.1225
G1 X166.9510 Y100.0179 E0.1225
G1 X168.6296 Y97.5281 E0.1226
G1 X169.9445 Y94.8287 E0.1226
G1 X170.8723 Y91.9726 E0.1226
G1 X171.3931 Y89.0152 E0.1226
G1 X171.4982 Y86.0140 E0.1226
G1 X171.1847 Y83.0268 E0.1226
G1 X170.4586 Y80.1138 E0.1225
G1 X169.3339 Y77.3293 E0.1226
G1 X167.8337 Y74.7282 E0.1226
G1 X165.9858 Y72.3615 E0.1226
G1 X163.8274 Y70.2758 E0.1225
G1 X161.3995 Y68.5110 E0.1225
G1 X158.7491 Y67.1007 E0.1225
G1 X155.9295 Y66.0736 E0.1225
G1 X152.9936 Y65.4497 E0.1225
G1 X150.0000 Y65.2404 E0.1225
G1 X147.0064 Y65.4497 E0.1225
G1 X144.0705 Y66.0736 E0.1225
G1 X141.2511 Y67.1006 E0.1225
G1 X138.6015 Y68.5110 E0.1225
G1 X136.1735 Y70.2758 E0.1225
G1 X134.0141 Y72.3616 E0.1225
G1 X132.1663 Y74.7282 E0.1226
G1 X130.6661 Y77.3293 E0.1226
G1 X129.5414 Y80.1138 E0.1226
G1 X128.8153 Y83.0268 E0.1225
G1 X128.5018 Y86.0140 E0.1226
G1 X128.6069 Y89.0152 E0.1226
G1 X129.1277 Y91.9727 E0.1226
G1 X130.0555 Y94.8286 E0.1226
G1 X131.3713 Y97.5281 E0.1226
G1 X133.0491 Y100.0180 E0.1225
G1 X135.0575 Y102.2490 E0.1225
G1 X137.3565 Y104.1792 E0.1225
G1 X139.9019 Y105.7710 E0.1225
G1 X142.6430 Y106.9921 E0.1225
G1 X145.5276 Y107.8195 E0.1225
G1 X148.5000 Y108.2380 E0.1225
G1 X148.4720 Y108.6380 F4800
G1 X151.5289 E0.1248 F1800
G1 X154.5559 Y108.2117 E0.1248
G1 X157.4942 Y107.3688 E0.1248
G1 X160.2875 Y106.1250 E0.1248
G1 X162.8793 Y104.5035 E0.1248
G1 X165.2211 Y102.5374 E0.1248
G1 X167.2670 Y100.2648 E0.1248
G1 X168.9770 Y97.7285 E0.1249
G1 X170.3163 Y94.9788 E0.1248
G1 X171.2614 Y92.0696 E0.1249
G1 X171.7918 Y89.0572 E0.1248
G1 X171.8989 Y86.0000 E0.1249
G1 X171.5796 Y82.9573 E0.1249
G1 X170.8400 Y79.9899 E0.1248
G1 X169.6944 Y77.1536 E0.1249
G1 X168.1662 Y74.5041 E0.1248
G1 X166.2839 Y72.0933 E0.1248
G1 X164.0853 Y69.9687 E0.1248
G1 X161.6121 Y68.1710 E0.1248
G1 X158.9122 Y66.7344 E0.1248
G1 X156.0401 Y65.6881 E0.1248
G1 X153.0494 Y65.0526 E0.1248
G1 X150.0000 Y64.8395 E0.1248
G1 X146.9506 Y65.0526 E0.1248
G1 X143.9599 Y65.6881 E0.1248
G1 X141.0878 Y66.7344 E0.1248
G1 X138.3889 Y68.1710 E0.1248
G1 X135.9157 Y69.9687 E0.1248
G1 X133.7161 Y72.0934 E0.1248
G1 X131.8338 Y74.5041 E0.1248
G1 X130.3056 Y77.1536 E0.1248
G1 X129.1600 Y79.9899 E0.1249
G1 X128.4204 Y82.9573 E0.1248
G1 X128.1011 Y86.0000 E0.1249
G1 X128.2082 Y89.0572 E0.1249
G1 X128.7386 Y92.0696 E0.1249
G1 X129.6837 Y94.9787 E0.1248
G1 X131.0240 Y97.7285 E0.1249
G1 X132.7331 Y100.2648 E0.1248
G1 X134.7789 Y102.5374 E0.1248
G1 X137.1207 Y104.5035 E0.1248
G1 X139.7135 Y106.1250 E0.1248
G1 X142.5058 Y107.3688 E0.1248
G1 X145.4441 Y108.2117 E0.1248
G1 X148.4720 Y108.6380 E0.1248
G1 X148.4440 Y109.0380 F4800
G1 X151.5570 E0.1271 F1800
G1 X154.6393 Y108.6039 E0.1271
G1 X157.6315 Y107.7456 E0.1271
G1 X160.4758 Y106.4790 E0.1271
G1 X163.1151 Y104.8279 E0.1271
G1 X165.4997 Y102.8258 E0.1271
G1 X167.5830 Y100.5116 E0.1271
G1 X169.3243 Y97.9289 E0.1271
G1 X170.6881 Y95.1289 E0.1271
G1 X171.6504 Y92.1666 E0.1271
G1 X172.1906 Y89.0991 E0.1271
G1 X172.2996 Y85.9860 E0.1271
G1 X171.9746 Y82.8878 E0.1272
G1 X171.2213 Y79.8659 E0.1271
G1 X170.0548 Y76.9779 E0.1271
G1 X168.4987 Y74.2800 E0.1271
G1 X166.5820 Y71.8251 E0.1271
G1 X164.3431 Y69.6616 E0.1271
G1 X161.8247 Y67.8310 E0.1271
G1 X159.0754 Y66.3681 E0.1271
G1 X156.1507 Y65.3027 E0.1271
G1 X153.1051 Y64.6555 E0.1271
G1 X150.0000 Y64.4385 E0.1270
G1 X146.8949 Y64.6555 E0.1270
G1 X143.8493 Y65.3027 E0.1271
G1 X140.9246 Y66.3681 E0.1270
G1 X138.1763 Y67.8310 E0.1271
G1 X135.6579 Y69.6616 E0.1271
G1 X133.4180 Y71.8251 E0.1271
G1 X131.5013 Y74.2800 E0.1271
G1 X129.9452 Y76.9779 E0.1271
G1 X128.7787 Y79.8659 E0.1271
G1 X128.0254 Y82.8878 E0.1271
G1 X127.7004 Y85.9860 E0.1272
G1 X127.8094 Y89.0991 E0.1271
G1 X128.3496 Y92.1666 E0.1271
G1 X129.3119 Y95.1289 E0.1271
G1 X130.6767 Y97.9288 E0.1271
G1 X132.4170 Y100.5116 E0.1271
G1 X134.5003 Y102.8258 E0.1271
G1 X136.8849 Y104.8278 E0.1271
G1 X139.5252 Y106.4790 E0.1271
G1 X142.3685 Y107.7456 E0.1270
G1 X145.3607 Y108.6039 E0.1271
G1 X148.4440 Y109.0380 E0.1271
; feature solid fill
G1 X148.6608 Y107.9780 F4800
G1 X128.8369 Y88.1542 E1.4304 F2100
G1 X128.8164 Y87.5679 E0.0299
G1 X149.2265 Y107.9780 E1.4727
G1 X149.7921 E0.0289
G1 X128.7959 Y86.9817 E1.5150
G1 X128.7754 Y86.3955 E0.0299
G1 X150.3578 Y107.9780 E1.5573
G1 X150.9235 E0.0289
G1 X128.7819 Y85.8364 E1.5976
G1 X128.8356 Y85.3244 E0.0263
G1 X151.4884 Y107.9772 E1.6345
G1 X151.9843 Y107.9074 E0.0255
G1 X128.8893 Y84.8124 E1.6664
G1 X128.9430 Y84.3005 E0.0263
G1 X152.4801 Y107.8375 E1.6983
G1 X152.9760 Y107.7677 E0.0255
G1 X128.9968 Y83.7885 E1.7302
G1 X129.0505 Y83.2765 E0.0263
G1 X153.4718 Y107.6979 E1.7621
G1 X153.9677 Y107.6280 E0.0255
G1 X129.1397 Y82.8001 E1.7914
G1 X129.2526 Y82.3473 E0.0238
G1 X154.4584 Y107.5530 E1.8187
G1 X154.8980 Y107.4270 E0.0233
G1 X129.3655 Y81.8945 E1.8423
G1 X129.4783 Y81.4416 E0.0238
G1 X155.3375 Y107.3009 E1.8658
G1 X155.7771 Y107.1748 E0.0233
G1 X129.5912 Y80.9888 E1.8894
G1 X129.7041 Y80.5360 E0.0238
G1 X156.2167 Y107.0487 E1.9130
G1 X156.6563 Y106.9226 E0.0233
G1 X129.8292 Y80.0954 E1.9357
G1 X129.9919 Y79.6925 E0.0222
G1 X157.0959 Y106.7965 E1.9557
G1 X157.5062 Y106.6410 E0.0224
G1 X130.1547 Y79.2896 E1.9735
G1 X130.3174 Y78.8866 E0.0222
G1 X157.8975 Y106.4668 E1.9900
G1 X158.2889 Y106.2925 E0.0219
G1 X130.4802 Y78.4837 E2.0065
G1 X130.6429 Y78.0808 E0.0222
G1 X158.6804 Y106.1182 E2.0230
G1 X159.0718 Y105.9439 E0.0219
G1 X130.8057 Y77.6778 E2.0395
G1 X130.9869 Y77.2934 E0.0217
G1 X159.4631 Y105.7696 E2.0547
G1 X159.8545 Y105.5953 E0.0219
G1 X131.1938 Y76.9346 E2.0680
G1 X131.4008 Y76.5759 E0.0211
G1 X160.2161 Y105.3912 E2.0791
G1 X160.5641 Y105.1735 E0.0209
G1 X131.6077 Y76.2171 E2.0893
G1 X131.8146 Y75.8583 E0.0211
G1 X160.9120 Y104.9557 E2.0995
G1 X161.2600 Y104.7381 E0.0209
G1 X132.0215 Y75.4996 E2.1097
G1 X132.2285 Y75.1408 E0.0211
G1 X161.6080 Y104.5204 E2.1198
G1 X161.9560 Y104.3026 E0.0209
G1 X132.4459 Y74.7926 E2.1293
G1 X132.6939 Y74.4749 E0.0206
G1 X162.3040 Y104.0849 E2.1365
G1 X162.6331 Y103.8484 E0.0207
G1 X132.9420 Y74.1573 E2.1423
G1 X133.1900 Y73.8396 E0.0206
G1 X162.9406 Y103.5902 E2.1466
G1 X163.2482 Y103.3321 E0.0205
G1 X133.4380 Y73.5219 E2.1509
G1 X133.6860 Y73.2043 E0.0206
G1 X163.5557 Y103.0739 E2.1552
G1 X163.8632 Y102.8157 E0.0205
G1 X133.9341 Y72.8866 E2.1595
G1 X134.1821 Y72.5689 E0.0206
G1 X164.1707 Y102.5576 E2.1638
G1 X164.4782 Y102.2994 E0.0205
G1 X134.4657 Y72.2869 E2.1655
G1 X134.7534 Y72.0089 E0.0204
G1 X164.7826 Y102.0381 E2.1667
G1 X165.0506 Y101.7404 E0.0204
G1 X135.0412 Y71.7310 E2.1653
G1 X135.3289 Y71.4531 E0.0204
G1 X165.3186 Y101.4427 E2.1639
G1 X165.5866 Y101.1450 E0.0204
G1 X135.6167 Y71.1751 E2.1624
G1 X135.9044 Y70.8972 E0.0204
G1 X165.8545 Y100.8473 E2.1610
G1 X166.1225 Y100.5496 E0.0204
G1 X136.1922 Y70.6192 E2.1596
G1 X136.4991 Y70.3605 E0.0205
G1 X166.3905 Y100.2519 E2.1568
G1 X166.6585 Y99.9542 E0.0204
G1 X136.8267 Y70.1224 E2.1525
G1 X137.1543 Y69.8843 E0.0207
G1 X166.8994 Y99.6294 E2.1462
G1 X167.1272 Y99.2915 E0.0208
G1 X137.4819 Y69.6462 E2.1390
G1 X137.8094 Y69.4081 E0.0207
G1 X167.3550 Y98.9536 E2.1318
G1 X167.5828 Y98.6157 E0.0208
G1 X138.1370 Y69.1700 E2.1246
G1 X138.4646 Y68.9319 E0.0207
G1 X167.8106 Y98.2779 E2.1174
G1 X168.0384 Y97.9400 E0.0208
G1 X138.7988 Y68.7004 E2.1097
G1 X139.1680 Y68.5039 E0.0213
G1 X168.2662 Y97.6021 E2.0995
G1 X168.4772 Y97.2474 E0.0211
G1 X139.5372 Y68.3074 E2.0881
G1 X139.9064 Y68.1109 E0.0213
G1 X168.6625 Y96.8670 E2.0749
G1 X168.8477 Y96.4866 E0.0216
G1 X140.2756 Y67.9144 E2.0616
G1 X140.6447 Y67.7179 E0.0213
G1 X169.0330 Y96.1062 E2.0483
G1 X169.2183 Y95.7258 E0.0216
G1 X141.0139 Y67.5214 E2.0351
G1 X141.3863 Y67.3281 E0.0214
G1 X169.4036 Y95.3454 E2.0216
G1 X169.5889 Y94.9650 E0.0216
G1 X141.8010 Y67.1770 E2.0050
G1 X142.2156 Y67.0260 E0.0225
G1 X169.7562 Y94.5666 E1.9872
G1 X169.8949 Y94.1397 E0.0229
G1 X142.6302 Y66.8749 E1.9673
G1 X143.0449 Y66.7239 E0.0225
G1 X170.0336 Y93.7127 E1.9473
G1 X170.1724 Y93.2857 E0.0229
G1 X143.4595 Y66.5729 E1.9274
G1 X143.8741 Y66.4218 E0.0225
G1 X170.3111 Y92.8587 E1.9075
G1 X170.4498 Y92.4318 E0.0229
G1 X144.3071 Y66.2891 E1.8863
G1 X144.7737 Y66.1899 E0.0243
G1 X170.5885 Y92.0048 E1.8626
G1 X170.6852 Y91.5358 E0.0244
G1 X145.2402 Y66.0908 E1.8360
G1 X145.7067 Y65.9917 E0.0243
G1 X170.7699 Y91.0548 E1.8084
G1 X170.8546 Y90.5738 E0.0249
G1 X146.1733 Y65.8925 E1.7809
G1 X146.6398 Y65.7934 E0.0243
G1 X170.9393 Y90.0929 E1.7533
G1 X171.0240 Y89.6119 E0.0249
G1 X147.1149 Y65.7028 E1.7251
G1 X147.6436 Y65.6658 E0.0270
G1 X171.1087 Y89.1309 E1.6931
G1 X171.1473 Y88.6038 E0.0270
G1 X148.1723 Y65.6288 E1.6577
G1 X148.7011 Y65.5919 E0.0270
G1 X171.1664 Y88.0573 E1.6210
G1 X171.1856 Y87.5107 E0.0279
G1 X149.2298 Y65.5549 E1.5842
G1 X149.7585 Y65.5180 E0.0270
G1 X171.2047 Y86.9642 E1.5474
G1 X171.2239 Y86.4176 E0.0279
G1 X150.3304 Y65.5242 E1.5075
G1 X150.9386 Y65.5667 E0.0311
G1 X171.2193 Y85.8473 E1.4633
G1 X171.1529 Y85.2153 E0.0324
G1 X151.5468 Y65.6092 E1.4147
G1 X152.1550 Y65.6517 E0.0311
G1 X171.0866 Y84.5833 E1.3660
G1 X171.0203 Y83.9513 E0.0324
G1 X152.7632 Y65.6942 E1.3173
G1 X153.4464 Y65.8117 E0.0354
G1 X170.9540 Y83.3193 E1.2632
G1 X170.8137 Y82.6134 E0.0367
G1 X154.1647 Y65.9643 E1.2013
G1 X154.8830 Y66.1170 E0.0375
G1 X170.6259 Y81.8599 E1.1359
G1 X170.4381 Y81.1064 E0.0396
G1 X155.6014 Y66.2696 E1.0705
G1 X156.4300 Y66.5326 F4800
G1 X170.2503 Y80.3529 E0.9972 F2100
G1 X169.9081 Y79.4450 F4800
G1 X157.3199 Y66.8568 E0.9083 F2100
G1 X158.2097 Y67.1809 F4800
G1 X169.5248 Y78.4960 E0.8164 F2100
G1 X169.1415 Y77.5470 F4800
G1 X159.2633 Y67.6688 E0.7127 F2100
G1 X160.4722 Y68.3121 F4800
G1 X168.4128 Y76.2527 E0.5729 F2100
G1 E-1.5000 F2400 ; e-retract 1.5
G1 Z0.4550 F4800 ; z-hop start
G1 X167.6419 Y74.9160
G1 Z0.2550 ; z-hop end
G1 E1.5000 F2400 ; e-engage 1.5
G4 P20
